X: 133
T:Untitled. HA.132
M:C
L:1/8
Q:180
S:Henry Atkinson's original MS,Hartburn,N'umberland,1694.
O:England
A:Hartburn,Northumberland
H:1/8
Z:vmp.Chris Partington.Jan.2004
K:Bb
F2|BABc B2c2|d2B4c2|def2 f2ed|c6f2|!
gfga g2a2|b2f2-f2ba|gfed c3B|B6:|!
|:AB|cBcd c2f2|c2AB c2fe|dcBA G2AB|A2GF f3f|!
d2g2=e3f|gfga g2a2|b2a2 bagf|f6ba|!
g2e2 g2ag|f2d2 f2gf|e2c2 A2fe|d4B2F2|!
GAB2 ABc2|Bcd2 cde2|d2(cB) (Bc)(BA)|B6:|]
